Adwaita++/emotes/16/face-laugh.svg

<svg height="16" width="16" xmlns="http://www.w3.org/2000/svg">
  <path d="m8 1c-3.878 0-7 3.122-7 7s3.122 7 7 7 7-3.122 7-7-3.122-7-7-7z" fill="#ffa348"/>
  <path d="m11 10.485714c0 .788978-1.3431457 1.514286-3 1.514286-1.6568544 0-3-.725308-3-1.514286 0-.485714 1.3431456-.485714 3-.485714 1.6568543 0 3 0 3 .485714z" fill="#c01c28"/>
  <path d="m2.5256195 9.8649474c-.5123475-.2958039-.64587-.9813199-.4192307-1.3738708.1573085-.2724662.4706758-.5089405.9047227-.836955.0626822-.0477312.1286173-.0968971.1959856-.1485473.3447805-.2636109.7702664-.5159595 1.0576216-.6780095-.011529.3157752-.031192.7924892-.0631428 1.2632126-.0592606.8557896-.1211378 1.1811457-.2765336 1.4502992-.2266393.3925512-.8870746.6196754-1.3994228.3238708z" fill="#3584e4"/>
  <path d="m13.489099 9.8649474c.512348-.2958039.64587-.9813199.419231-1.3738708-.157309-.2724662-.470676-.5089405-.904723-.836955-.062682-.0477312-.128617-.0968971-.195985-.1485473-.344781-.2636109-.770267-.5159595-1.057622-.6780095.01153.3157752.03119.7924892.06314 1.2632126.05926.8557896.121138 1.1811458.276533 1.4502992.22664.3925512.887075.6196754 1.399423.3238708z" fill="#3584e4"/>
  <g fill="#5e5c64">
    <path d="m7 7.0115401c0 .5522847-.4477153 0-1 0s-1 .5522847-1 0 .4477153-1 1-1 1 .4477153 1 1z"/>
    <path d="m11 7.0115401c0 .5522847-.447715 0-1 0s-1 .5522847-1 0 .447715-1 1-1 1 .4477153 1 1z"/>
  </g>
</svg>

<svg xmlns="http://www.w3.org/2000/svg" width="16" height="16" version="1">
 <path d="M 8,1 C 4.122,1 1,4.122 1,8 c 0,3.878 3.122,7 7,7 3.878,0 7,-3.122 7,-7 C 15,4.122 11.878,1 8,1 Z" style="fill:#ffa348"/>
 <path d="M 11,10.485714 C 11,11.274692 9.6568543,12 8,12 6.3431456,12 5,11.274692 5,10.485714 5,10 6.3431456,10 8,10 c 1.6568543,0 3,0 3,0.485714 z" style="fill:#c01c28"/>
 <path d="M 2.5256195,9.8649474 C 2.013272,9.5691435 1.8797495,8.8836275 2.1063888,8.4910766 2.2636973,8.2186104 2.5770646,7.9821361 3.0111115,7.6541216 3.0737937,7.6063904 3.1397288,7.5572245 3.2070971,7.5055743 3.5518776,7.2419634 3.9773635,6.9896148 4.2647187,6.8275648 4.2531897,7.14334 4.2335267,7.620054 4.2015759,8.0907774 4.1423153,8.946567 4.0804381,9.2719231 3.9250423,9.5410766 3.698403,9.9336278 3.0379677,10.160752 2.5256195,9.8649474 Z" style="fill:#3584e4"/>
 <path d="M 13.489099,9.8649474 C 14.001447,9.5691435 14.134969,8.8836275 13.90833,8.4910766 13.751021,8.2186104 13.437654,7.9821361 13.003607,7.6541216 12.940925,7.6063904 12.87499,7.5572245 12.807622,7.5055743 12.462841,7.2419634 12.037355,6.9896148 11.75,6.8275648 c 0.01153,0.3157752 0.03119,0.7924892 0.06314,1.2632126 0.05926,0.8557896 0.121138,1.1811458 0.276533,1.4502992 0.22664,0.3925512 0.887075,0.6196754 1.399423,0.3238708 z" style="fill:#3584e4"/>
 <path d="m 7,7.0115401 c 0,0.5522847 -0.4477153,0 -1,0 -0.5522847,0 -1,0.5522847 -1,0 0,-0.5522847 0.4477153,-1 1,-1 0.5522847,0 1,0.4477153 1,1 z" style="fill:#5e5c64"/>
 <path d="m 11,7.0115401 c 0,0.5522847 -0.447715,0 -1,0 -0.552285,0 -1,0.5522847 -1,0 0,-0.5522847 0.447715,-1 1,-1 0.552285,0 1,0.4477153 1,1 z" style="fill:#5e5c64"/>
</svg>
